src/icons/left-nav/announcements_inactive.svg

<svg xmlns="http://www.w3.org/2000/svg" width="20" height="20" fill="none"><path stroke="#212121" stroke-linecap="round" stroke-linejoin="round" stroke-width="1.5" d="M8.61667 13.2c-.57334-.05-1.155-.075-1.74167-.075H6.25c-.99456 0-1.94839-.3951-2.65165-1.0983C2.89509 11.3234 2.5 10.3696 2.5 9.375c0-.99456.39509-1.94839 1.09835-2.65165S5.25544 5.625 6.25 5.625h.625c.58667 0 1.16833-.025 1.74167-.075m0 7.65c.21083.8017.48666 1.5767.82083 2.3192.20583.4583.05 1.0083-.38583 1.2591l-.5475.3167c-.45917.265-1.05.0975-1.2725-.3842-.52809-1.1424-.93046-2.3389-1.2-3.5683m2.585.0575c-.32752-1.2486-.49277-2.5342-.49167-3.825 0-1.32167.17083-2.60333.49167-3.825m0 7.65c2.56793.2201 5.06853.9376 7.36253 2.1125M8.61667 5.55c2.56793-.22007 5.06853-.93756 7.36253-2.1125m0 11.875c-.0984.3167-.2042.6283-.3167.9375m.3167-.9375c.4533-1.4612.7368-2.9698.845-4.4958m-.845-7.3792c-.0978-.31509-.2033-.62769-.3167-.9375m.3167.9375c.4533 1.4612.7368 2.96975.845 4.49583m0 0c.4125.34417.6758.8625.6758 1.44167s-.2633 1.0975-.6758 1.4417m0-2.88337c.0683.9599.0683 1.92344 0 2.88337"/></svg>

<svg width="20" height="20" viewBox="0 0 20 20" fill="none" xmlns="http://www.w3.org/2000/svg"><path d="M8.61667 13.2C8.04333 13.15 7.46167 13.125 6.875 13.125H6.25C5.25544 13.125 4.30161 12.7299 3.59835 12.0267C2.89509 11.3234 2.5 10.3696 2.5 9.375C2.5 8.38044 2.89509 7.42661 3.59835 6.72335C4.30161 6.02009 5.25544 5.625 6.25 5.625H6.875C7.46167 5.625 8.04333 5.6 8.61667 5.55M8.61667 13.2C8.8275 14.0017 9.10333 14.7767 9.4375 15.5192C9.64333 15.9775 9.4875 16.5275 9.05167 16.7783L8.50417 17.095C8.045 17.36 7.45417 17.1925 7.23167 16.7108C6.70358 15.5684 6.30121 14.3719 6.03167 13.1425M8.61667 13.2C8.28915 11.9514 8.1239 10.6658 8.125 9.375C8.125 8.05333 8.29583 6.77167 8.61667 5.55M8.61667 13.2C11.1846 13.4201 13.6852 14.1376 15.9792 15.3125M8.61667 5.55C11.1846 5.32993 13.6852 4.61244 15.9792 3.4375M15.9792 15.3125C15.8808 15.6292 15.775 15.9408 15.6625 16.25M15.9792 15.3125C16.4325 13.8513 16.716 12.3427 16.8242 10.8167M15.9792 3.4375C15.8814 3.12241 15.7759 2.80981 15.6625 2.5M15.9792 3.4375C16.4325 4.8987 16.716 6.40725 16.8242 7.93333M16.8242 7.93333C17.2367 8.2775 17.5 8.79583 17.5 9.375C17.5 9.95417 17.2367 10.4725 16.8242 10.8167M16.8242 7.93333C16.8925 8.89323 16.8925 9.85677 16.8242 10.8167" stroke="#212121" stroke-width="1.5" stroke-linecap="round" stroke-linejoin="round"></path></svg>
